X:1
T:Lieder, Op.125
T:Es duften süss die Linden
T:Frau Paula Zaunert freundschaftlich zugeeignet
T:Lieder, Op.125
T:2. Es duften süss die Linden
T:Luise Greger 
T:Gottfried Hertel 
T:Creative Commons copyright waiver (CC0 1.0 Universal)
T:Creative Commons copyright waiver (CC0 1.0 Universal)
C:Luise Greger
Z:Gottfried Hertel
Z:Creative Commons copyright waiver (CC0 1.0 Universal)
%%score ( 1 2 ) { ( 3 6 ) | ( 4 5 ) }
L:1/8
Q:1/4=92
M:3/4
K:Ab
V:1 treble nm="Gesang\nVoice"
V:2 treble 
V:3 treble nm="Klavier\nPiano"
V:6 treble 
V:4 bass 
V:5 bass 
V:1
"^In sanfter BewegungAndante" z6 | z6 | z6 | z2 z2 z!mp! c | c3 c c d | c2 c2 z!<(! A | %6
w: |||Es|duf- ten süss die|Lin- den in|
 F3!<)! F!>(! G G | C4!>)! A2 |!mf! A3!<(! A A B!<)! | c2 c2 z c |!f! e3!>(! c G G!>)! | %11
w: schü- ler Som- mer-|nacht, mein|Herz konnt’ Ruh’ nicht|fin- den, nur|dein hab’ ich ge-|
!mf!!>(! G6!>)! || z2 z2!p! d2 | d3 d A B | c2 A2 z A | _c3 c _F _G | A4!<(! A2 | %17
w: dacht.|Die|Blät- ter rau- schen|wie- der, von|zar- tem Hauch er-|regt, mir|
 e3!<)! e A!>(! B | E2!>)!!<(! F2 A2 | d3!<)!!>(! d d c | c4!>)! z2 | z6 | z2 z2!f! C2 | %23
w: klingt’s wie trau- te|Lie- der, die|einst dein Herz be-|wegt!||O,|
 F3!<(! F G G | A2 A2 B2 | c3 c =d d!<)! | =e4!p! c2 |!<(! _e3 e e [cf]!<)! |!>(! _d2 d2 =A2 | %29
w: flö- gen, sturm ge-|trie- ben, die|Blät- ter hin zu|dir, auf|je- dem steht ge-|schrie- ben: Komm|
 !breath!c4!>)!!p! _A2 |!mp!!<(! !breath!f4!<)!!p! =B2 |!<(! c6- | c6-!<)! | c4 z2 | z6 |] %35
w: bald, komm|bald zu|mir!|_|||
V:2
 x6 | x6 | x6 | x6 | x6 | x6 | x6 | x6 | x6 | x6 | x6 | x6 || x6 | x6 | x6 | x6 | x6 | x6 | x6 | %19
 x6 | x6 | x6 | x6 | x6 | x6 | x6 | x6 | x6 | x6 | x6 | d4 x2 | x6 | x3!>(! x3 | x4!>)! x2 | x6 |] %35
V:3
!mp!!<(! z [A,D]!tenuto!.C!<)!!>(!A[G,G]=E!>)! |!<(! z [F,D]!tenuto!.C!<)!!>(!GF=B,!>)! | %2
!<(! C=D!tenuto!.C!<)!!>(!=dc=A!>)! | [=D=G][=E=A]!fermata![DG]!>(!!fermata!B!fermata!AG!>)! | %4
!p! [Fc]G!tenuto!.FB_AG |!>(! cG!tenuto!.FE_DC!>)! | =B,C!tenuto!.B,F[_B,D]C | %7
!<(! [A,C]D!tenuto!.C!<)!!>(!BA[=Ed]!>)! |!<(! [Fc]G!tenuto!.F[Ac]Ff!<)! | %9
 [Ae]B!tenuto!.A[da]!>(![A-e][Ac]!>)! | gfe[G=d] [Gc][F=B] | %11
!>(! [=Ec]=AG!fermata!f !fermata!=e!fermata!c'!>)! ||!pp! C!tenuto!.cc!tenuto!.c'c'!tenuto!.b | %13
!ppp! [dfa]!tenuto!.[egb] [dfa]!tenuto!.[egb] [dfa]!tenuto!.[egb] | %14
 [Ace]!tenuto!.[Bdf] [Ace]!tenuto!.[Bdf] [Ace]!tenuto!.[Bdf] | %15
 [_ce_g]!tenuto!.[d_fa] [ceg]!tenuto!.[dfa] [df__b]!tenuto!.[eg_c'] | %16
 [_fa_c']!tenuto!.[_g__bd']!<(! [fac']!tenuto!.[gbd'] [fac']!tenuto!.[fad']!<)! | %17
!<(! [a=c'e']!tenuto!.[dfa] [cea]!tenuto!.[fad']!<)!!>(! [dfb]!tenuto!.[egc']!>)! | %18
 [Ae]!tenuto!.[Bd-] [Fd]!tenuto!.[fd'] [db]!tenuto!.[Bf] | %19
!>(! ([Dd]!tenuto!.[FB])"_rit." ([Dd]!tenuto!.[_FB]) ([Dd]E-)!>)! |!p! [CE]DCF[G,E]B, | %21
!mp! [A,C]DCF[G,E]B, |!<(! CDCE!<)! [A,=E]G, | z!mf!!<(! [A,D]Cd[Cc]B | [FA]BAagf!<)! | cdcc'ba | %26
!>(! g=ecAGc!>)! | [_GB_e]!tenuto!.[Acf] [GBe]!tenuto!.[Acf] [GBe]!tenuto!.[EGc] | %28
 [=E=A^c]!tenuto!.[^FA^d] [EAc]!tenuto!.[FAd] [EAc]!tenuto!.[^CEA] | %29
!pp!!<(! [_A_e]fe!<)!!>(!_aeA!>)! |!<(! [Fd]fd!<)!!>(!=AB=B!>)! |!>(! c=AC[=DA]=E[Gc] | %32
 c=AC[=DA]=E[Gc]!>)! |!pp! =ac=A[Bf]=Bg | !fermata![cfc']4 z2 |] %35
V:4
 C,4 =B,,_B,, | A,,6 | [C,,=A,,]B,,=D,=E,F,=A, | [F,B,]C"^rit."B,=DCB, | [F,_A,]B,A,_DCB, | %5
 [F,A,]B,A,G,F,E, | [D,G,]A,G,F,[C,=E,]G, | [F,,C,]=E,F,DCB, | [F,A,]B,A,[E,C][D,A,]B, | %9
 CDCF [E,C][F,=D] |[I:staff -1] [G,E]!>(!AGF E=D!>)! | %11
!ped![I:staff +1] [C,G,]=B,C[I:staff -1]A Ge!ped-up! ||[I:staff +1] z6 |!8va(! B4 E2!8va)! | %14
 A,4 E,2 | __B,2 A,2 _G,2 | _F,2 _C2 _F2 | [E,=CE]4 [E,F]E | C2 B,2 A,2 | A,4 G,2 | %20
 E,F,E,=D,_D,E, | E,F,E,=D,_D,E, | E,F,E,C,- C,2 | C,4 =D,=E, | [F,C]DCA,B,D | %25
[I:staff -1] [C=E]FEAGF | [C=E]GcCB,C |!p! _A,6 |[I:staff +1] G,4 =E,2 | [_E,C]DCFCF, | %30
 [D,A,]=A,B,CD[G,=D] |!ped! F,,C,=A,=B,_B,C,!ped-up! |!ped! F,,C,=A,=B,_B,C,!ped-up! | %33
!ped! F,C[I:staff -1]F[I:staff +1]=D!ped-up! _D2 |[I:staff -1] !arpeggio!=A4[I:staff +1] z2 |] %35
V:5
 F,,6 | F,,2 E,,2 D,,2 | x6 | x6 | x6 | x6 | x6 | x6 | x6 | E,4- x2 | x6 | x6 || x6 | %13
!8va(! x6!8va)! | x6 | x6 | x6 | x6 | E,6 | E,6 | A,,6 | A,,6 | A,,4 C,,2 | F,,6 | x6 | x6 | x6 | %27
 x6 | x6 | x6 | x6 | x6 | x6 | x6 | [F,C]4 x2 |] %35
V:6
 x6 | x6 | x6 | x3 =E3 | x6 | F3 A3 | F3 F x2 | x6 | x6 | x6 | c3 x3 | x6 || x6 | x6 | x6 | x6 | %16
 x6 | x6 | x6 | x6 | x6 | x6 | A,4 x2 | x6 | x6 | x6 | x6 | x6 | x6 | x6 | x6 | x6 | x6 | x6 | %34
 x6 |] %35

